outputs/icons/maps/cafe_sharp.svg

<svg xmlns="http://www.w3.org/2000/svg" width="1200" height="1200" fill="none"><g clip-path="url(#a)"><path fill="#000" d="M1000 150H200v700h700V500h100c55 0 100-45 100-100V250c0-55-45-100-100-100m0 250H900V250h100zm-900 650h900V950H100z"/></g><defs><clipPath id="a"><path fill="#fff" d="M0 0h1200v1200H0z"/></clipPath></defs></svg>

<svg width="1200" height="1200" viewBox="0 0 1200 1200" fill="none" xmlns="http://www.w3.org/2000/svg"><g clip-path="url(#clip0_133_506)"><path d="M1000 150H200V850H900V500H1000C1055 500 1100 455 1100 400V250C1100 195 1055 150 1000 150ZM1000 400H900V250H1000V400ZM100 1050H1000V950H100V1050Z" fill="#1D1E23"/></g><defs><clipPath id="clip0_133_506"><path width="24" fill="white" d="M0 0H1200V1200H0V0z"/></clipPath></defs></svg>
